X: 105
T: No_33_Death_Song_of_Name'binês'.krn
%%abc-version 2.0
%%abcx-abcm2ps-target-version 5.9.1 (29 Sep 2008)
%%abc-creator hum2abc beta
%%abcx-conversion-date 2020/08/10 18:54:56
%%gracespace 0 6 6
%%humdrum-veritas 259851586
%%humdrum-veritas-data 2231693820
%%linebreak <none>
%%barnumbers 0
L: 1/8
M: 2/4
%%staves {1 2}
V: 1 clef=bass
V: 2 clef=bass
K: C
[V:1] E [I:setbarnb 1]| 
[V:2] z | 
[V:1] E(3:2:5E/E C-CC | 
[V:2] G,,G,, G,,G,, | 
[V:1] C(3:2:5C/C A,A,E | 
[V:2] G,,G,, G,,G,, | 
[V:1] E(3:2:5E/E C-CC | 
[V:2] z4 | 
[V:1] C(3:2:5C/C G,-G,G, | 
[V:2] z4 | 
[V:1] A,(3:2:2A,/A,E,2 | 
[V:2] z4 | 
[V:1] A,A, G,G, | 
[V:2] z4 | 
[V:1] E,E, C,/C,/C,/C,/ | 
[V:2] z4 | 
[V:1] C,2C,2- | 
[V:2] z4 | 
[V:1] C,2C, z |]  
[V:2] z4 |]  


